icons/svg/24x24/mail alt1/outline.svg

<svg xmlns="http://www.w3.org/2000/svg" width="24" height="24" viewBox="0 0 24 24">
  <path fill-rule="evenodd" d="M19,18 L5,18 C4.448,18 4,17.552 4,17 L4,10.539 L12,14.095 L20,10.539 L20,17 C20,17.552 19.552,18 19,18 M5,7 L19,7 C19.552,7 20,7.448 20,8 L20,8.35 L12,11.905 L4,8.35 L4,8 C4,7.448 4.448,7 5,7 M19,5 L5,5 C3.343,5 2,6.343 2,8 L2,17 C2,18.657 3.343,20 5,20 L19,20 C20.657,20 22,18.657 22,17 L22,8 C22,6.343 20.657,5 19,5"/>
</svg>

<svg width="24" height="24" fill="none" xmlns="http://www.w3.org/2000/svg">
  <path fill-rule="evenodd" clip-rule="evenodd" d="M19 18H5a1 1 0 01-1-1v-6.461l8 3.556 8-3.556V17a1 1 0 01-1 1zM5 7h14a1 1 0 011 1v.35l-8 3.555L4 8.35V8a1 1 0 011-1zm14-2H5a3 3 0 00-3 3v9a3 3 0 003 3h14a3 3 0 003-3V8a3 3 0 00-3-3z" fill="#000"/>
</svg>
